X:1
T:Title
%%score { ( 1 4 ) | ( 2 3 ) }
L:1/8
M:6/8
K:Eb
V:1 treble nm="Grand Piano"
V:4 treble 
V:2 bass 
V:3 bass 
V:1
 z3 z2[Q:1/4=90] B | B2 G F2 E | E3 D2 [DA] | [FA]G[B,FA] [DAc]2 [DFB] |[M:5/8] G3- [B,G]2 | %5
[M:1/8] B |[M:3/4] B2 G F2 E | E3 D2 [DA] | [FA][EG] [DF] [DB]2 D |[M:5/8] E-E- E3 |[M:1/8] E | %11
[M:3/4] z E [CEA] [EAc]2 [EAc] | [Ac]3 [GB]2 B | BF B d2 c |[M:5/8] [DB]-[DB]- [DB]3 |[M:1/8] B | %16
[M:3/4] e2 B B2 G | [DF]3 E2 [Ec] | .[Ec]2 [G,E] [B,EG]2 [A,DF] |[M:5/8] [G,E]-[G,E]- [G,E]3 |] %20
V:2
 z3 z2 [E,G,E] | [E,G,E]2 [E,B,E] [E,A,B,]2 [E,G,B,] | [B,,G,B,]3 [B,,F,B,]2 [B,,F,] | %3
 .[B,,B,]3 z3 |[M:5/8] E,3 E,2 |[M:1/8] [E,G,E] |[M:3/4] [E,G,E]2 [E,B,E] [E,A,B,]2 [E,G,B,] | %7
 [B,,G,B,]3 [B,,F,B,]2 [B,,F,] | [B,,B,]2 [B,,B,] [B,,F,]2 [B,,A,B,] | %9
[M:5/8] [E,G,B,]-[E,G,B,]- [E,G,B,]3 |[M:1/8] [E,G,B,] |[M:3/4] [A,,A,]2 A,, A,,2 A,, | %12
 [E,E]3 [E,E]2 [G,B,E] | [F,B,D]2 [F,B,D] [F,=A,F]2 [F,A,E] |[M:5/8] B,,D,F, B,2 | %15
[M:1/8][K:treble] [A,B,F] |[M:3/4] [G,B,E]2[K:bass] [G,B,E] [F,B,D]2 [E,B,E] | %17
 [B,,A,]3 [C,G,]2 [A,,A,] | z[K:treble] B[K:bass] C, B,,2 B,, |[M:5/8] E,-E,- E,3 |] %20
V:3
 x6 | x6 | x6 | z =EB,, B,,2 B,, |[M:5/8] x5 |[M:1/8] x |[M:3/4] x6 | x6 | x6 |[M:5/8] x5 | %10
[M:1/8] x |[M:3/4] x6 | x6 | x6 |[M:5/8] x5 |[M:1/8][K:treble] x |[M:3/4] x2[K:bass] x4 | x6 | %18
 [B,,G,]2[K:treble][K:bass] z2 z2 |[M:5/8] x5 |] %20
V:4
 x6 | x6 | x6 | x6 |[M:5/8] E3 z2 |[M:1/8] x |[M:3/4] x6 | x6 | x6 |[M:5/8] x5 |[M:1/8] x | %11
[M:3/4] C2 z2 z2 | x6 | x6 |[M:5/8] B,3 z2 |[M:1/8] x |[M:3/4] x6 | x6 | x6 |[M:5/8] x5 |] %20

